X:83
T: OFT MANCHER MUSS LEIDEN
N: E0689
O: Europa, Mitteleuropa, Deutschland, Frankfurt a.d. Oder, Neubrueck
R: Liebes - Lied, Leid, Klage
M: 3/8
L: 1/16
K: Bb
F2 | B2D2G2 | G2F2
Bc | d3Bdc | c4
F2 | e2e2c2 | d2d2
B2 | c3eA2 | B4

